packages/core/assets/Icons/priority_high.svg

<svg viewBox="0 0 20 20" fill="none" xmlns="http://www.w3.org/2000/svg">
<path d="M9.99999 17.5C9.54166 17.5 9.1493 17.3368 8.82291 17.0104C8.49652 16.684 8.33333 16.2917 8.33333 15.8333C8.33333 15.375 8.49652 14.9826 8.82291 14.6562C9.1493 14.3299 9.54166 14.1667 9.99999 14.1667C10.4583 14.1667 10.8507 14.3299 11.1771 14.6562C11.5035 14.9826 11.6667 15.375 11.6667 15.8333C11.6667 16.2917 11.5035 16.684 11.1771 17.0104C10.8507 17.3368 10.4583 17.5 9.99999 17.5ZM9.99999 12.5C9.54166 12.5 9.1493 12.3368 8.82291 12.0104C8.49652 11.684 8.33333 11.2917 8.33333 10.8333V4.16667C8.33333 3.70833 8.49652 3.31597 8.82291 2.98958C9.1493 2.66319 9.54166 2.5 9.99999 2.5C10.4583 2.5 10.8507 2.66319 11.1771 2.98958C11.5035 3.31597 11.6667 3.70833 11.6667 4.16667V10.8333C11.6667 11.2917 11.5035 11.684 11.1771 12.0104C10.8507 12.3368 10.4583 12.5 9.99999 12.5Z" fill="currentColor"/>
</svg>

<svg xmlns="http://www.w3.org/2000/svg" width="20" height="20" fill="none" viewBox="0 0 20 20">
  <path fill="#201F1F" d="M10 17.5c-.458 0-.85-.163-1.177-.49a1.605 1.605 0 0 1-.49-1.177c0-.458.164-.85.49-1.177.326-.326.719-.49 1.177-.49.458 0 .85.164 1.177.49.327.327.49.719.49 1.177 0 .459-.163.851-.49 1.177-.326.327-.719.49-1.177.49Zm0-5c-.458 0-.85-.163-1.177-.49a1.605 1.605 0 0 1-.49-1.177V4.167c0-.459.164-.851.49-1.177.326-.327.719-.49 1.177-.49.458 0 .85.163 1.177.49.327.326.49.718.49 1.177v6.666c0 .459-.163.851-.49 1.177-.326.327-.719.49-1.177.49Z"/>
</svg>
